X:1
T:Ave Mater nostri Redemptoris
T:Johannes de Lymburgia
T:Ave Mater nostri Redemptoris
C:Johannes de Lymburgia
%%score [ 1 [ 2 3 ] ]
L:1/8
Q:1/4=160
M:3/2
K:F
V:1 treble nm="Soprano" snm="S"
V:2 treble-8 nm="Tenor 1" snm="T 1"
V:3 treble-8 nm="Tenor 2" snm="T 2"
V:1
 c12- | c8 B4 | A8 G4 | E4 A6 B2 | G4 F4 G2 E2 | G12 | z12 | A4 A4 A4 | E4 G8 | F4 E4 F2 D2 | %10
w: A-|||||ve||ma- ter no-|stri Re-|dem- pto- * *|
 F12- | F12 | c8 A4 | G4 d8 | c2 BA G2 c2 B2 A2 | c4 A4 F4 | E8 D4 | A4 B6 A2 | A2 G2 F2 E4 D2 | %19
w: ris|_|De- i|et ho-|mi- * * * * * *|nis _ me-|di- a-|to- * *||
 F2 G2 A2 c4 B2 | G6 A2 G2 F2 | A4 z4 z4 | c8 A4 | G4 E4 D4 | C8 D4 | E4 A8 | G4 E2 F2 E2 D2 | %27
w: ||ris.|A- ve|pu- * di-|ci- ti-|ae ca-|sti- ta- * * *|
 F12 | A8 F4 | c6 B2 G4 | A6 G2 F2 E2 | G4 z2 A2 B4 | A2 A4 A2 G2 F2 | A4 z4 z4 | G8 G4 | A8 F4 | %36
w: tis|Vir- go|al- * ma|et _ _ _|flos vir- gi-|ni- ta- * * *|tis.|A- ve|li- li-|
 E8 F4 | E2 A4 c2 B2 G2 | A4 G2 G2 F2 E2 | G4 z2 G2 _E4 | D4 C8 | A4 G2 c2 B2 A2 | c4 z2 c2 c2 B2 | %43
w: um et|ro- * * * *||sa si- ne|spi- na,|O- dor ae- * *|qui at que _|
 (3A2 G2 F2 E8 | D4 C2 F2 E2 D2 | F12 | z12 | A8 A4 | c8 c4 | c4 B2 G2 A4 | G2 E4 A2 F2 E2 | G12 | %52
w: stel- * * la|ma- tu- * ti- *|na.||A- ve|fons si-|gna- * * *||tus|
 F8 F4 | E4 A6 G2 | F4 E6 D2 | C4 z4 z4 | A6 F4 D2- | D2 E4 G4 D2- | D2 F6 A4 | B4 A2 A2 G2 F2 | %60
w: et por-|ta _ _|cae- lo- *|rum.|Glo- ri- a|_ et ho- nor|_ an- ge-|lo- * * * *|
 A12 | B8 B4 | c8 c4 | A4 G2 F4 E2 | F8 F4 | D4 F8 | E4 z4 z4 | A4 G2 c4 A2 | B12 | %69
w: rum.|A- ve|se- du-|la ro- ga- *|trix pec-|ca- to-|rum|Tu- um _ na-|tum|
 A2 G2 F2 E4 D2 | G4 A8 | G4 E2 F2 E2 D2 | F12 | z2 c2 B2 A2 c4- | c2 B2 G6 A2 | %75
w: o- * * * ra|pro- sa-|lu- te _ ho- *|rum|A- * * *||
 F2 E2 C2 F2 E2 D2 | F12- | F12 |] %78
w: |men.|_|
V:2
 f12- | f8 d4 | c8 c4 | e4 f6 d2 | d4 c8 | B4 B4 B4 | G8 G4 | F12 | z12 | c4 B8 | c12 | d12 | c12 | %13
w: A-||||* ve|ma- ter no-|stri Re-|dem-||pto- *|ris|_|De-|
 G8 G4 | z2 F4 F4 F2 | f8 d4 | c8 d4 | A4 G8 | A8 B4 | c8 z4 | e4 f4 d4 | c12 | z2 f4 f4 f2 | %23
w: i et|ho- mi- nis|me- di-|a- to-|||||ris.|A- ve pu-|
 d4 B8 | c8 G4 | z2 A4 A4 A2 | d4 c2 A2 B4 | c8 d4 | e8 f4 | g4 c8 | F4 A4 z2 c2 | B6 G2 G4 | %32
w: di- ci-|ti- ae|ca- sti- ta-||tis Vir-|* go|al- ma|et _ flos|_ vir- gi-|
 A4 F4 G4 | c12 | d8 d4 | e4 f8 | c6 A2 F4 | A8 B4 | c4 B2 G2 c4 | d8 z2 B2 | G4 A8 | F4 c4 d4 | %42
w: ni- * ta-|tis.|A- ve|li- li-|um et _|ro- *||sa si-|ne spi-|na, O- dor|
 e8 e4 | f2 d2 d4 c4 | G4 A2 c2 B4 | c12 | F12 | F12 | A4 c4 z2 e2 | f4 d4 A4 | B4 c8 | d4 B4 G4 | %52
w: ae- qui|at que stel- *|la ma- tu- ti-|na.|A-|ve|A- ve fons|si- * gna-||* * tus|
 B8 B4 | c4 z2 d4 d2 | c8 d4 | e8 e4 | f4 c2 A2 G4 | g4 e2 c2 G4 | G4 B4 A2 c2 | d4 c4 d4 | %60
w: et por-|ta cae- lo-||rum. Glo-|ri- a _ et|ho- nor _ an-|ge- * lo- *||
 e4 f4 c4 | d8 d4 | A8 c4 | e4 c4 =B4 | c8 c2 A2 | G4 z4 B4 | c4 G8 | A8 A4 | G4 B4 d4 | %69
w: * * rum.|A- ve|se- du-|la _ ro-|ga- * *|trix pec-|ca- to-|rum Tu-|um _ na-|
 e4 z2 c4 c2 | d2 e2 f4 F4 | c4 e2 c2 =B4 | c8 A4 | F4 G4 A2 F2 | f4 d4 e4 | z2 c2 c4 B4 | c12- | %77
w: tum o- ra|pro- sa- lu- *|te ho- * *|rum A-||||men.|
 c12 |] %78
w: _|
V:3
 F12- | F8 G4 | A8 c4- | c4 d8 | B4 A8 | G12 | d4 d4 d4 | c12- | c8 d4 | A4 G8 | F12 | z12 | %12
w: A-|||||ve|ma- ter no-|stri|_ Re-|dem- pto-|ris||
 A8 A4 | B12 | c8 c4 | F8 F4 | A8 B4 | c4 d8 | c8 G4 | F8 G4 | c4 B8 | A12 | F8 F4 | G8 G4 | %24
w: De- i|et|ho- mi-|nis me-|di- a-|to- *||||ris.|A- ve|pu- di-|
 A8 B4 | c8 c4 | B2 G2 A4 G4 | F8 z4 | c8 d4 | c4 e4 e4 | f4 c4 A4 | G4 d4 d4 | c8 B4 | A12 | %34
w: ci- ti-|ae ca-|sti- * ta- *|tis|Vir- go|al- * ma|et _ flos|vir- gi- ni-|ta- *|tis.|
 B8 B4 | A4 d8 | e4 c4 z2 A2 | c4 F4 G4 | F4 G2 B2 A4 | G4 G4 G4 | B4 c4 z2 e2 | f4 e4 d4 | c8 A4 | %43
w: A- ve|li- li-|um _ et|ro- * *||sa si- ne|spi- na, O-|dor _ ae-|qui at|
 F4 G4 A4 | B4 c2 A2 G4 | F12 | A8 A4 | c8 c4 | c4 A8 | F4 G4 F4 | z2 G2 A8 | G4 z4 z4 | d8 d4 | %53
w: que stel- la|ma- tu- * ti-|na.|A- ve|fons si-|gna- *|||tus|et por-|
 e4 d4 B4 | A8 G4 | c12 | F4 A4 B4 | G4 c4 B4 | d4 d4 c4 | G4 A4 B4 | A4 z4 z4 | G8 G4 | F8 F4 | %63
w: ta _ cae-|lo- *|rum.|Glo- ri- a|et ho- nor|an- ge- *|lo- * *|rum.|A- ve|se- du-|
 c4 A4 G4 | F8 A4 | B8 d4 | e4 d8 | c8 c4 | d4 G4 z4 | c4 A8 | G4 F4 f4 | e2 c4 A2 G4 | F12 | %73
w: la ro- ga-|trix pec-|ca- to-|rum _|Tu- um|na- tum|o- ra|pro- sa- lu-|* * te ho-|rum|
 A4 d4 c4 | F4 G4 c4 | A8 G4 | F12- | F12 |] %78
w: A- * *|||men.|_|

